X:96
T: NICHTS BESSRES GIBT ES WEIT UND BREIT
N: F0205
O: Europa, Mitteleuropa, Deutschland
R: Geselligkeits - Lied
M: 2/4
L: 1/16
K: G
GA | B2B2B2B2 | dcA2G2
FG | A2A2B2d2 | A4z2
GA | B2B2B2B2 | dcA2G2
FG | A2A2B2d2 | A4z2
d2 | c2c2B2B2 | AGABG2
d2 | c2c2B2B2 | AGABG2
G2 | e6e2 | e6dc | B2A2G2
GA | B4AzAB | c4Bz
Bc | d2d2c2B2 | AGABA2
GG | B4AzAB | c4Bz
Bc | d2B2c2A2 | G4z2

@@@ Tune index: 5527
